X: 26436
T: Merry Sisters, The
R: reel
M: 4/4
K: Adorian
|:"Am"eA ~A2 "C"eg"D"fd|"Am"eA ~A2 "G"gdBd|"Am"eA ~A2 "C"eg"D"fd|"G"BG ~G2 DGBd:|
"Am"eaaf g2 fg|"Am"eaag edBd|"Am"eaaf g2 fg|"D9"egde "G"gdBG|
"Am"eaaf g2 fg|"Cmaj7"egab c'bag|"D7add9"eaaf g2 fg|"E7sus4"egde gdBG||
"C"AG"D"fg "Em"eg"G"dg|"Am"eA ~A2 eA~B2|egfg egde|"G"BG ~G2 DGBd|
"C"eg"D"fg "Em"eg"G"dg|"Am"eA ~A2 eA~B2|"G"DGBd ~g3a|(3bag af "Em"g4||

